X:42
T:La Belle Catherine. WCF.042
T:Wedding Day. WCF.043
M:2/4
L:1/16
Q:1/4=100
C:..or The Wedding Day
S:Wm Clarke MS, Feltwell, 1858
O:England
A:Norfolk
N:As written, other versions easily available.
Z:Transcribed Lyn Law 04/2006
K:D
“_as Writ”A2|d4fede|fddc|B4efed|cAAA|!
d4fede|fddc|B2e2 dcBA|d4D2:|!
|:AG|F2A2A2G2|F2A2A2G2|F2A2 dfed|cAAG|!
FGAB A2G2|F2A2 A2Bc|d3e2 {f}f2e2d2|a4A4|!
d4fede|fddc|B4efed|c2A2A2A2|!
d4fede|fddc|B2e2 dcBA|d4D4|]

